src/Widgets/IconContainerWidget/thumbnail.svg

<svg xmlns="http://www.w3.org/2000/svg" fill="none" viewBox="0 0 150 100"><g clip-path="url(#a)"><path fill="#AAA" d="M33.81 68.14c9.836 0 17.81-8.09 17.81-18.07S43.646 32 33.81 32 16 40.09 16 50.07s7.974 18.07 17.81 18.07" opacity=".55"/><path stroke="#fff" stroke-miterlimit="10" stroke-width="1.5" d="m34.71 40.84 2.39 4.84c.15.3.43.5.76.55l5.34.78c.82.12 1.15 1.13.56 1.71l-3.87 3.77c-.24.23-.34.56-.29.89l.91 5.32c.14.82-.72 1.45-1.46 1.06l-4.78-2.51c-.29-.15-.64-.15-.93 0l-4.78 2.51c-.74.39-1.6-.24-1.46-1.06l.91-5.32a.98.98 0 0 0-.29-.89l-3.87-3.77c-.6-.58-.27-1.59.56-1.71l5.34-.78c.33-.05.61-.25.76-.55l2.39-4.84c.37-.75 1.43-.75 1.8 0z" opacity=".75"/><path fill="#AAA" d="M74.87 68.14c9.836 0 17.81-8.09 17.81-18.07S84.706 32 74.87 32s-17.81 8.09-17.81 18.07 7.974 18.07 17.81 18.07" opacity=".55"/><path stroke="#fff" stroke-miterlimit="10" stroke-width="1.5" d="M79.31 59.64c-.83 0-1.51-.68-1.51-1.51v-4.76c0-.89-2.08-1.62-2.94-1.62s-2.94.73-2.94 1.62v4.76c0 .83-.68 1.51-1.51 1.51h-3.32c-.83 0-1.51-.68-1.51-1.51v-9.14c0-.42.18-.83.49-1.11l7.65-6.97c.57-.52 1.44-.53 2.02-.01 1.52 1.36 6.56 5.86 7.85 6.98.33.29.52.7.52 1.14v9.12c0 .83-.68 1.51-1.51 1.51h-1.66l-.638-.01z" opacity=".75"/><path fill="#AAA" d="M115.92 68.14c9.836 0 17.81-8.09 17.81-18.07S125.756 32 115.92 32s-17.81 8.09-17.81 18.07 7.974 18.07 17.81 18.07" opacity=".55"/><path stroke="#fff" stroke-miterlimit="10" stroke-width="1.5" d="M115.76 52.6c.16 0 .32.06.44.18l6.16 6.16c.46.46 1.22.46 1.68 0l.75-.75c.46-.46.46-1.22 0-1.68l-6.16-6.16a.63.63 0 0 1-.18-.52.6.6 0 0 1 .3-.45l2.25-1.31c.86-.5.77-1.77-.16-2.14l-12.56-4.99c-.95-.38-1.88.56-1.51 1.51l4.99 12.56c.37.93 1.64 1.02 2.14.16l1.31-2.25c.1-.17.26-.28.45-.3h.08z" opacity=".75"/></g><defs><clipPath id="a"><path fill="#fff" d="M16 32h117.73v36.15H16z"/></clipPath></defs></svg>

<svg viewBox="0 0 150 100" fill="none" xmlns="http://www.w3.org/2000/svg">
<g id="icon-list">
<g id="Ebene_1" clip-path="url(#clip0_6_490)">
<path id="Vector" opacity="0.55" d="M33.81 68.14C43.6462 68.14 51.62 60.0498 51.62 50.07C51.62 40.0902 43.6462 32 33.81 32C23.9738 32 16 40.0902 16 50.07C16 60.0498 23.9738 68.14 33.81 68.14Z" fill="#AAAAAA"/>
<path id="Vector_2" opacity="0.75" d="M34.71 40.84L37.1 45.68C37.25 45.98 37.53 46.18 37.86 46.23L43.2 47.01C44.02 47.13 44.35 48.14 43.76 48.72L39.89 52.49C39.65 52.72 39.55 53.05 39.6 53.38L40.51 58.7C40.65 59.52 39.79 60.15 39.05 59.76L34.27 57.25C33.98 57.1 33.63 57.1 33.34 57.25L28.56 59.76C27.82 60.15 26.96 59.52 27.1 58.7L28.01 53.38C28.07 53.05 27.96 52.72 27.72 52.49L23.85 48.72C23.25 48.14 23.58 47.13 24.41 47.01L29.75 46.23C30.08 46.18 30.36 45.98 30.51 45.68L32.9 40.84C33.27 40.09 34.33 40.09 34.7 40.84H34.71Z" stroke="white" stroke-width="1.5" stroke-miterlimit="10"/>
<path id="Vector_3" opacity="0.55" d="M74.87 68.14C84.7062 68.14 92.68 60.0498 92.68 50.07C92.68 40.0902 84.7062 32 74.87 32C65.0338 32 57.06 40.0902 57.06 50.07C57.06 60.0498 65.0338 68.14 74.87 68.14Z" fill="#AAAAAA"/>
<g id="Group" opacity="0.75">
<path id="Vector_4" d="M79.31 59.64C78.48 59.64 77.8 58.96 77.8 58.13V53.37C77.8 52.48 75.72 51.75 74.86 51.75C74 51.75 71.92 52.48 71.92 53.37V58.13C71.92 58.96 71.24 59.64 70.41 59.64H67.09C66.26 59.64 65.58 58.96 65.58 58.13V48.99C65.58 48.57 65.76 48.16 66.07 47.88L73.72 40.91C74.29 40.39 75.16 40.38 75.74 40.9C77.26 42.26 82.3 46.76 83.59 47.88C83.92 48.17 84.11 48.58 84.11 49.02V58.14C84.11 58.97 83.43 59.65 82.6 59.65H80.94L80.3023 59.64H79.31Z" stroke="white" stroke-width="1.5" stroke-miterlimit="10"/>
</g>
<path id="Vector_5" opacity="0.55" d="M115.92 68.14C125.756 68.14 133.73 60.0498 133.73 50.07C133.73 40.0902 125.756 32 115.92 32C106.084 32 98.11 40.0902 98.11 50.07C98.11 60.0498 106.084 68.14 115.92 68.14Z" fill="#AAAAAA"/>
<g id="Group_2" opacity="0.75">
<path id="Vector_6" d="M115.76 52.6C115.92 52.6 116.08 52.66 116.2 52.78L122.36 58.94C122.82 59.4 123.58 59.4 124.04 58.94L124.79 58.19C125.25 57.73 125.25 56.97 124.79 56.51L118.63 50.35C118.49 50.21 118.43 50.02 118.45 49.83C118.47 49.64 118.59 49.47 118.75 49.38L121 48.07C121.86 47.57 121.77 46.3 120.84 45.93L108.28 40.94C107.33 40.56 106.4 41.5 106.77 42.45L111.76 55.01C112.13 55.94 113.4 56.03 113.9 55.17L115.21 52.92C115.31 52.75 115.47 52.64 115.66 52.62C115.69 52.62 115.71 52.62 115.74 52.62L115.76 52.6Z" stroke="white" stroke-width="1.5" stroke-miterlimit="10"/>
</g>
</g>
</g>
<defs>
<clipPath id="clip0_6_490">
<rect width="117.73" height="36.15" fill="white" transform="translate(16 32)"/>
</clipPath>
</defs>
</svg>
